X: 32974
T: Pretty Girl Milking Her Cow, The
R: waltz
M: 3/4
K: Adorian
c2 e2 ed|B2 d2 dB|AB G4-|G4 AB|c2 e2 ed|B2 d2 dB|A6-|A3 B AB|
c2 e2 ed|B2 g2 dB|AB G4-|G3 f gf|ed cB AG|E2 A3 B|A6-|A4:|
c2 cd ef|g2 ge dB|AB G4-|G4 AB|c2 cd ef|g2 e2 g2|a6-|a3 a ba|
g2 ge dc|dg GB dB|A/B/A G4-|G3 f gf|ed cB AG|E2 A3 B|A6-|A4 AB||
c2 cd ef|g2 ge dB|AB G4-|G4 AB|c2 cd ef|g2 c'3 b|a6-|a3 a ba|
g2 ge dc|dg GB dB|A/B/A ^G4-|^G3 f gf|ed cB AG|E3 A3 B|A6|A4||

